static/fa/svgs/solid/hand-point-right.svg

<svg xmlns="http://www.w3.org/2000/svg" viewBox="0 0 512 512"><!--! Font Awesome Free 6.1.1 by @fontawesome - https://fontawesome.com License - https://fontawesome.com/license/free (Icons: CC BY 4.0, Fonts: SIL OFL 1.1, Code: MIT License) Copyright 2022 Fonticons, Inc.--><path d="M224 320c0 17.69 14.33 32 32 32h64c17.67 0 32-14.31 32-32s-14.33-32-32-32h-64c-17.7 0-32 14.3-32 32zm43.6-64H352c17.67 0 32-14.31 32-32s-14.33-32-32-32h-80v40c0 8.5-1.7 16.5-4.4 24zm4.4-96h208c17.67 0 32-14.31 32-32s-14.33-32-32-32H271.2c.3 2.66.8 5.3.8 8v56zm48 256c0-17.69-14.33-32-32-32h-64c-17.67 0-32 14.31-32 32s14.33 32 32 32h64c17.7 0 32-14.3 32-32zm-117.9-60.2C196 345.6 192 333.3 192 320c0-5.766 1.08-11.24 2.51-16.55C157.4 300.6 128 269.9 128 232v-72.9c0-7.9 7.2-15.1 15.1-15.1s16.9 7.2 16 15.1v69.72c0 16.38 12.2 42.28 40.9 42.28 22.1 0 40-17 40-39.1V104c0-22.09-17.9-40-40-40h-63.4c-33.1 0-64.57 16-84.13 42.8l-26.45 36.4A136.277 136.277 0 0 0 0 223.3V312c0 75.1 60.89 136 136 136h32.88c-5.48-9.4-8.88-20.3-8.88-32 0-27.9 18-51.4 42.1-60.2z"/></svg>

<svg xmlns="http://www.w3.org/2000/svg" viewBox="0 0 512 512"><!--! Font Awesome Free 6.1.1 by @fontawesome - https://fontawesome.com License - https://fontawesome.com/license/free (Icons: CC BY 4.0, Fonts: SIL OFL 1.1, Code: MIT License) Copyright 2022 Fonticons, Inc. --><path d="M224 320c0 17.69 14.33 32 32 32h64c17.67 0 32-14.31 32-32s-14.33-32-32-32h-64C238.3 288 224 302.3 224 320zM267.6 256H352c17.67 0 32-14.31 32-32s-14.33-32-32-32h-80v40C272 240.5 270.3 248.5 267.6 256zM272 160H480c17.67 0 32-14.31 32-32s-14.33-32-32-32h-208.8C271.5 98.66 272 101.3 272 104V160zM320 416c0-17.69-14.33-32-32-32H224c-17.67 0-32 14.31-32 32s14.33 32 32 32h64C305.7 448 320 433.7 320 416zM202.1 355.8C196 345.6 192 333.3 192 320c0-5.766 1.08-11.24 2.51-16.55C157.4 300.6 128 269.9 128 232V159.1C128 151.2 135.2 144 143.1 144S160 151.2 159.1 159.1l0 69.72C159.1 245.2 171.3 271.1 200 271.1C222.1 271.1 240 254.1 240 232v-128C240 81.91 222.1 64 200 64H136.6C103.5 64 72.03 80 52.47 106.8L26.02 143.2C9.107 166.5 0 194.5 0 223.3V312C0 387.1 60.89 448 136 448h32.88C163.4 438.6 160 427.7 160 416C160 388.1 178 364.6 202.1 355.8z"/></svg>
